/* XPM */
static char * cteam_16_xpm[] = {
"16 16 27 1",
"! c None",
"# c #E9F5FB",
"$ c #DFF1F8",
"% c #E0EEF2",
"& c #E7E7E8",
"' c #E0E5E7",
"( c #D8E6EC",
") c #DDE0E3",
"* c #E0DBD9",
"+ c #E1D2CD",
", c #D1DCE1",
"- c #CBCDCF",
". c #E8C5B9",
"/ c #E4BCAE",
"0 c #D0C5C0",
"1 c #C4C4C4",
"2 c #BFC7CA",
"3 c #BCBBBB",
"4 c #EA9576",
"5 c #F07C51",
"6 c #E29175",
"7 c #96999A",
"8 c #EE6A38",
"9 c #EE5B24",
": c #EF5117",
"; c #E65D2B",
"< c #767575",
"!!!!!!!!!!!!!!!!",
"!!!!!7,&&,7!!!!!",
"!!!!'.5885.(!!!!",
"!!!#4:5//5:6#!!!",
"!!%4:+$$%$+:6(!!",
"!7&:.+//01(.:*<!",
"!,/8%+0011*%84-!",
"!$45$)'')'&$56(!",
"!%45,111-13(56(!",
"!2.90113337+9/2!",
"!<#85%%''%$58(<!",
"!!-*;8/**/8;-2!!",
"!!!')699996,)!!!",
"!!!!1(*00-(3!!!!",
"!!!!!<3223<!!!!!",
"!!!!!!!!!!!!!!!!"
};
