/* XPM */
static char * cteam_32_xpm[] = {
"32 32 57 1",
"! c None",
"# c #FEFFFF",
"$ c #F9F9F9",
"% c #EFF4F7",
"& c #E3F3F8",
"' c #ECEEF0",
"( c #E1EFF4",
") c #DFEEF3",
"* c #E8E9EA",
"+ c #E4E9EC",
", c #E4E6E6",
"- c #E0EBF0",
". c #E0E9ED",
"/ c #DFE6E9",
"0 c #E2E4E4",
"1 c #E1E3E3",
"2 c #E3E1E1",
"3 c #E1E1E1",
"4 c #E0E2E3",
"5 c #D9E2E7",
"6 c #E0E0DF",
"7 c #E1DCDA",
"8 c #DBDDDF",
"9 c #D5DBDF",
": c #DED3D0",
"; c #D5D6D6",
"< c #D3D3D4",
"= c #CED3D7",
"> c #CECFD0",
"? c #CBCDD0",
"@ c #E5C5B8",
"A c #CEC8CC",
"B c #C9C8CA",
"C c #C5C7CA",
"D c #C3C4C5",
"E c #C0C1C4",
"F c #D5B7B0",
"G c #E2AD9A",
"H c #BFBCBE",
"I c #B8B9BA",
"J c #B1B0AF",
"K c #DEA997",
"L c #E19F88",
"M c #DC9279",
"N c #ADA4A1",
"O c #969596",
"P c #F06D3B",
"Q c #F26029",
"R c #F35A20",
"S c #F65316",
"T c #F64C0D",
"U c #E97E56",
"V c #E8693B",
"W c #6F6F70",
"X c #F64607",
"Y c #F74203",
"Z c #F63E02",
"!!!!!!!!!!!!!!!!!!!!!!!!!!!!!!!!",
"!!!!!!!!!!!!J<*'*;J!!!!!!!!!!!!!",
"!!!!!!!!!O*##%&-&%##,O!!!!!!!!!!",
"!!!!!!!O$#%<KLUMUMK>&#'O!!!!!!!!",
"!!!!!!H#%<MPSSZTZSTPM?-#I!!!!!!!",
"!!!!!?#)KPRZXRPPPRXZSVK5$B!!!!!!",
"!!!!I#-LQYXU@6.-.6@UXYQM5$I!!!!!",
"!!!W#(FQZQ@).03330.)@QZRK5$W!!!!",
"!!!%$ARTQ7(330010136-7QTRH+*!!!!",
"!!O#.URT:1@6676040046-:TSU9$O!!!",
"!!2$AQZL&@@LGLKLHJIJ?2)LZRH+8!!!",
"!!$&MSR7/7@:@@@@>BBA;107RSM5'!!!",
"!O$/UYU)26?DC???HHD>;06)UYU=*N!!",
"!D$8VYL)26<<;;<<>>>;616)LYV?*D!!",
"!;$;PXG-340,100,,,,1133)GXPB0<!!",
"!8%8VZG)1,,,*,,04*1*0*3-GZV?4;!!",
"!<'5UTM(7JJDNHJI6I8J8J6(MXU=4>!!",
"!I')MZP&ID;;N>OB<WDOJO6.PYU96H!!",
"!O*%KQX:CJI;J<OCNJNNON5:XQK58O!!",
"!!4'=VTU&DB0;6BB>*;<;;)UTQC89!!!",
"!!C,(KSZG&,3,1**,3,,2&GZSL9;B!!!",
"!!O8'9URXG)/63333360(GXRU?8;O!!!",
"!!!>;'?VSXU7)-./.-)7UXSVE4>>!!!!",
"!!!W<8'BUTTSUG@:@GUSTTUE5<=W!!!!",
"!!!!J?6'?MQTYYXTXYYSQMC/<CJ!!!!!",
"!!!!!IC<'5HLVPSQSPVMH90ADI!!!!!!",
"!!!!!!JBE7*59DFFFD=5/;HBJ!!!!!!!",
"!!!!!!!WBEE>6/+../8?HEBO!!!!!!!!",
"!!!!!!!!!OEEHIHHIIHEEO!!!!!!!!!!",
"!!!!!!!!!!!!OIEDEIO!!!!!!!!!!!!!",
"!!!!!!!!!!!!!!!!!!!!!!!!!!!!!!!!",
"!!!!!!!!!!!!!!!!!!!!!!!!!!!!!!!!"
};
